static/jenkins.svg

<?xml version="1.0" encoding="UTF-8"?>
<svg width="130px" height="130px" viewBox="0 0 130 130" version="1.1" xmlns="http://www.w3.org/2000/svg" xmlns:xlink="http://www.w3.org/1999/xlink">
    <!-- Generator: Sketch 51.2 (57519) - http://www.bohemiancoding.com/sketch -->
    <title>jenkins</title>
    <desc>Created with Sketch.</desc>
    <defs></defs>
    <g id="jenkins" stroke="none" stroke-width="1" fill="none" fill-rule="evenodd" opacity="0.5">
        <g id="logo" transform="translate(32.000000, 20.000000)" fill="#000000" fill-rule="nonzero">
            <path d="M28.6548113,16.1946934 C29.6482075,13.9803538 31.2769104,11.8454009 34.5542689,12.6087028 C35.1834198,11.5741274 34.0586321,10.8140094 33.2274057,10.6889858 C31.2958019,10.3977594 28.9316038,12.5452358 28.3449057,14.1586557 C28.1207547,14.7733726 27.7677594,15.9796698 28.6548113,16.1946934 Z M52.9945047,20.8738443 C52.0603302,19.515566 51.4192925,17.8858019 50.6787028,16.3470991 L50.5231132,16.3411557 C50.418467,18.1112264 51.0764858,19.1765802 51.5324292,20.4278774 C50.7438679,20.9245755 49.2081368,20.6150943 48.31875,21.0039623 C48.2550708,23.6216038 52.36875,22.3316745 52.9945047,20.8738443 Z M33.8158019,21.3907075 C32.5836085,23.3375943 36.2224528,23.7035377 37.7842925,23.2425 C38.2115802,23.1166274 38.9523821,22.4755896 39.0536321,22.1879717 C39.4872877,20.9691509 38.6125472,20.4346698 38.1625472,19.9965566 C37.1636321,19.0229009 36.9350236,17.6692925 36.232217,16.3810613 C35.7457075,17.7624764 37.0674764,20.106934 37.8087028,21.2920047 C36.8433255,22.2295755 35.1074292,21.4509906 33.8160142,21.3907075 L33.8158019,21.3907075 Z M41.1108962,32.2458962 C44.9637028,32.6269104 47.5855896,30.9844104 49.9368396,29.4739387 C49.8434434,28.8817217 50.6489858,27.8144575 50.4254717,26.9237972 C50.347783,26.6175 49.6504953,26.1732311 49.2270283,25.7098585 C47.5021698,23.8291981 45.139033,21.0183962 44.1999764,18.8208255 C44.095967,18.5784198 44.0329245,17.2468868 43.3061321,17.7739387 C43.218467,21.0192453 45.6306368,23.7060849 47.4291509,25.8737264 C48.3075,26.9318632 49.3666981,27.5363915 48.3915566,29.1803774 C46.8191038,29.7783255 44.2746934,31.4898113 42.0885849,31.1158019 C40.9283491,30.9175472 41.1900708,29.6012972 40.7736085,28.8855425 C39.9740094,29.9375236 40.2877358,31.5303538 41.1111085,32.2458962 L41.1108962,32.2458962 Z M15.7795047,25.0371934 C15.1541745,26.2589858 15.3038208,28.6380425 16.155,29.4108962 C16.1501179,27.9613443 15.9244811,25.4827358 17.1611321,25.5576651 C18.0263208,25.6103066 18.2018632,27.4631604 18.9388443,27.8838679 C19.751816,23.9707783 14.86125,21.9920519 14.3533019,25.6826887 C14.7485377,25.4230896 15.066934,24.6871698 15.7795047,25.0371934 Z M45.5794811,35.4551179 C48.7910377,35.3882547 50.3395047,33.0941038 51.4339387,31.0107311 C49.5541274,31.8678538 48.0383491,33.1174528 45.5830896,33.3534906 C45.4642217,33.7584906 45.514316,34.7822406 45.5794811,35.4549057 L45.5794811,35.4551179 Z M44.7960142,35.5803538 C44.790283,34.8363679 44.7938915,34.0828302 44.6444575,33.472783 C41.8601887,33.5542925 38.0954717,33.4386085 36.0471226,32.3613679 C36.9853302,34.8733019 41.2170283,35.7588679 44.7960142,35.5803538 Z M35.6576179,34.3698113 C33.8482783,34.3721462 35.3744575,35.378066 35.680967,35.7722406 C36.3156368,36.5877594 37.0598349,37.9791509 38.2181604,38.5949292 C40.0446934,39.5649764 43.6733491,39.1589151 44.9889623,38.6235849 C45.4758962,38.4261792 45.8677358,37.8806604 46.0485849,37.4189858 C41.9427594,37.5170519 37.0740566,37.9265094 35.6576179,34.3700236 L35.6576179,34.3698113 Z M53.7266038,66.2860613 C55.5420991,66.4021698 56.8498585,64.593467 58.7109906,64.2207311 C56.4728774,64.286533 54.7244575,64.8793868 53.7266038,66.2860613 Z M54.6947406,67.4127594 C56.2334434,67.5392689 58.0149764,67.2936792 59.5320283,67.1334198 C58.2293632,66.6840566 55.4232311,66.300283 54.6947406,67.4127594 Z M54.6134434,69.5114151 C56.2336557,69.6474764 58.3526887,69.6814387 60.0575943,69.6445047 C58.9519104,69.1295519 55.571816,68.481934 54.6132311,69.5114151 L54.6134434,69.5114151 Z" id="Shape"></path>
            <circle id="Oval" cx="42.6691274" cy="53.9492689" r="1"></circle>
            <circle id="Oval" cx="43.3303302" cy="57.0156368" r="1"></circle>
            <path d="M62.4481132,62.185967 C62.0312264,61.2955189 61.4254245,60.7381132 60.7058491,60.4207783 C63.5820283,55.4591038 65.2345047,49.6691745 65.2338679,43.489316 C65.234717,34.3122877 61.5956604,25.9934434 55.7091509,19.9738443 C55.4299452,19.6892356 55.1456061,19.4097086 54.8562736,19.1354009 C54.6588679,15.6449292 53.9830189,12.3571698 52.7225943,9.80936321 C51.6188208,7.5771934 48.5325,4.49384434 46.6019575,3.03346698 C42.048467,-0.41009434 33.6311321,-0.790259434 28.1447406,1.22879717 C26.6153774,1.79150943 25.1346226,2.29542453 23.7912028,3.08398585 C20.1975708,5.19389151 16.383184,6.60566038 15.3171934,10.8511557 C13.0370519,11.872783 12.1408726,14.5426415 12.0313443,17.7820047 C11.2082807,18.4736308 10.4195545,19.2051188 9.66799528,19.9738443 C3.78212264,25.9936557 0.143490566,34.3114387 0.143490566,43.489316 C0.143490566,52.6654953 3.78212264,60.9841274 9.66778302,67.0037264 C10.2880001,67.6372841 10.933525,68.2455617 11.602783,68.8270755 C11.6520283,69.5364623 11.6970283,70.248184 11.7428774,70.965 C11.8373349,72.430684 11.681533,73.9821226 12.0621226,74.7916981 C12.4545991,75.6280189 13.9077594,75.8963208 14.9582547,76.3832547 C17.9925708,77.7867453 21.2111321,79.9287028 25.1904481,79.5035377 C26.1388443,82.6928066 27.0358726,86.0896698 28.1744575,88.8824292 C32.2545991,90.3495991 38.6953302,90.1203538 42.9374292,89.6104953 C44.2267217,89.4544811 45.5875472,88.8181132 45.8908726,87.7001179 C45.8002358,87.0102594 45.6989858,86.3297406 45.7422877,85.514434 C47.0689387,85.2399764 48.8742453,85.013066 49.1661085,83.5458962 C49.5751415,81.4865094 47.8659906,78.5368868 48.4354953,76.2783962 C49.2038915,76.0287736 50.0234434,75.8343396 49.900967,74.6225236 C51.1951415,73.9490094 52.7293868,73.7974528 54.368066,73.8611321 C54.5782075,74.269316 54.8791981,74.6611557 55.1491981,74.8859434 C57.4439858,75.3467689 59.6670283,75.3847642 61.5720991,74.7628302 C63.7289151,74.05875 64.758184,69.6481132 64.2642453,67.5498821 C63.9146462,66.0625472 63.1229009,63.626816 62.4479009,62.185967 L62.4481132,62.185967 Z M26.5712264,3.65879717 C26.7686321,3.60275943 26.9418396,3.73712264 27.1065566,3.91308962 C27.0849057,4.4834434 26.5232547,4.47070755 26.1435142,4.65389151 C25.5523585,5.37983491 24.6886557,5.72009434 23.9699292,6.51629717 C23.2327358,7.33139151 22.4078774,9.52259434 21.4306132,9.765 C20.940283,9.88705189 20.3811792,9.68009434 19.9545283,9.70811321 C18.8254953,9.77943396 18.0309906,10.3565802 16.8864623,10.5229953 C18.3646698,7.29169811 22.9741981,4.67830189 26.5712264,3.65879717 Z M15.202783,13.8050236 C16.6691038,12.1907547 18.6898585,11.1861085 21.1495755,10.9995283 C22.4163679,14.2246698 20.2404481,18.0560377 21.0508726,21.5825943 C21.2987972,22.6623821 22.1578302,24.3384198 20.7866038,24.3749292 C20.8226887,21.3019811 17.0108491,19.3525472 14.1389151,21.1591274 C13.9466038,18.8286792 13.6139858,15.5532311 15.202783,13.8050236 Z M12.7029481,26.085566 C12.8143868,23.9661085 14.6061085,21.9379245 17.0564858,22.2060142 C18.7885613,22.3957783 19.3767453,24.2862028 19.7129717,25.9679717 C20.71125,26.02125 22.1535849,25.9255189 22.6256604,25.1465094 C22.5579481,23.2452594 21.6751415,21.7207783 21.7358491,19.9744811 C21.8498349,16.6924528 23.6381604,13.7303066 22.2584434,10.4977358 C23.7353774,7.14778302 28.0668396,4.50424528 31.2711792,2.90653302 C35.2426415,0.926745283 41.5617453,2.51129717 45.2950472,4.61759434 C47.4393396,5.8275 49.0226179,8.16707547 50.5311792,10.1139623 C48.4155425,9.48587264 46.6142689,10.5652358 46.9426415,12.3104717 C48.7137736,10.6870755 51.7398113,12.2928538 52.6342925,14.0875472 C53.4903538,15.8039151 53.4846226,18.3464151 53.6160142,20.8976179 C53.9348349,27.0836321 52.4842217,33.4657783 49.3758255,37.9373349 C48.5450236,39.131533 47.8473113,40.4358962 46.6785849,41.2579953 C43.8618396,43.2360849 39.5804717,45.0288679 35.9146698,43.799434 C31.0699528,42.1734906 28.8689858,38.9455896 26.2046462,35.249434 C26.276816,37.2797406 27.7049292,38.9460142 29.1147877,40.4993632 C30.3420991,41.853184 31.8232783,43.3827594 33.4163208,44.0138208 C32.0869104,43.7017925 30.0468396,43.6035142 29.4930425,44.7966509 C26.3925,44.5907547 23.5105896,44.2738443 22.0436321,42.172217 C20.8878538,40.515283 19.7136085,37.6985377 19.1867689,35.5221934 C19.0795755,35.0751651 18.8949057,34.1220991 18.9399057,33.8782075 C19.1131132,32.9342689 20.7950943,32.519717 20.133467,31.1998585 C18.9129481,31.188184 18.6376415,32.3112736 17.5175236,32.4218632 C14.6173585,32.7088443 12.5713443,28.5777594 12.7029481,26.085566 Z M38.1099057,53.4583019 C40.0790802,55.9577123 41.2768868,59.171816 42.595684,62.2736321 C39.4796462,61.3341509 36.295684,59.8100943 33.5646934,58.2648113 C34.1008726,55.9413679 36.2018632,54.7380425 38.1099057,53.4583019 Z M37.2451415,45.6414623 C37.2670047,45.5574057 37.4015802,45.5947642 37.4066745,45.4916038 C39.3582311,46.3614623 41.8391745,45.1375472 43.8098349,44.9613679 C42.9537736,45.5202594 42.2248585,46.2179717 41.4027594,46.814434 C39.5794104,46.9046462 38.5845283,46.6883491 37.2451415,45.6414623 Z M39.1565802,52.5648821 C39.3837028,52.3245991 39.5859906,52.0579953 39.8084434,51.8119811 C40.7799764,52.2180425 41.4142217,51.2787736 42.1613915,51.3592217 C43.0176651,51.4500708 43.6956368,52.6328066 44.9174292,52.5551179 C44.7215094,55.7412028 44.824033,58.9391745 43.9346462,61.8582311 C42.2775,58.8194575 41.3025708,55.150684 39.1565802,52.5648821 Z M45.8467217,52.6688915 C47.5764623,51.8591038 49.0576415,52.8508019 49.7661792,53.9883255 C48.1039387,56.8352123 46.5132311,59.7595755 44.5410849,62.2708726 C45.368066,59.8395991 45.7219104,55.7707075 45.8465094,52.6686792 L45.8467217,52.6688915 Z M13.6020991,73.2160613 C13.3745519,65.1375 12.0875943,56.7560377 8.89938679,49.9147642 C12.2433962,47.3336321 15.9854009,44.6045519 19.9874292,43.0263679 C20.2903302,42.9070755 22.5019104,45.7847406 22.8290094,46.0175943 C24.6213679,47.2907547 26.8478066,48.2960377 28.9303302,49.2887972 C29.0574764,50.2444104 29.3523113,51.4821226 29.8706604,53.1392689 C30.4422877,54.9683491 30.9139387,57.5505425 33.3314151,56.2321698 C33.1017453,57.2765094 31.75875,57.9254009 32.1293632,59.1435849 C32.3615802,59.9081604 34.8987736,60.8523113 35.7038915,61.3059198 C37.188467,62.1428774 38.5427123,62.6058255 39.6825708,63.0948821 C34.5009906,63.2370991 29.6344104,63.6584434 24.8453066,64.3103066 C24.2721934,63.4217689 24.5035613,62.0520283 24.443066,60.6364387 C24.3768396,59.1000708 25.0157547,55.6346462 24.4114387,55.4198349 C23.7287972,55.1770047 23.6005896,56.5607547 23.5766038,56.865566 C23.4486085,58.4889623 24.3488208,61.9255189 23.4609198,63.8677358 C22.4893868,63.593066 22.0109434,62.8616038 21.0999057,62.5304717 C20.7426651,63.6552594 21.8396462,63.7093868 21.7273585,64.4236557 C21.5783491,65.3680189 19.78875,64.5786085 19.7985142,65.9829481 C20.9638443,66.1697406 22.7504717,65.6208255 23.9958255,66.1457547 C24.3212264,69.9658726 24.8448821,73.5860377 25.4182075,77.6436792 C20.4622642,77.3866274 17.254316,74.9241509 13.6020991,73.2158491 L13.6020991,73.2160613 Z M29.1079953,86.8947877 C26.8957783,80.1150708 25.6894811,73.6792217 24.8567689,66.0232783 C30.0177594,65.0576887 37.4510377,64.2194575 42.7100943,65.313467 C43.1912972,68.4447877 43.0123585,71.5328066 43.3632311,74.6021462 C43.8289387,78.6852594 43.4808255,83.3438208 44.2778774,87.1703066 C39.9377123,88.5156368 34.0183019,88.3857311 29.1082075,86.8947877 L29.1079953,86.8947877 Z M47.5452594,83.1716745 C46.6028066,83.4896462 46.0613208,83.7677123 44.7983491,83.7660142 C44.7091981,81.773066 44.4425943,78.7268632 44.5224057,76.8270991 C45.1434906,76.868066 46.0594104,76.383467 46.5584434,76.5163443 C46.8029717,78.6574528 47.651816,80.8270047 47.5454717,83.1716745 L47.5452594,83.1716745 Z M44.3517453,75.1854481 C44.1006368,71.8932311 43.9091745,68.6498349 43.9535377,65.3616509 C44.8478066,65.0621462 45.6374292,65.0810377 46.5342453,65.0725472 C47.310283,67.8761321 47.2633726,71.4425943 47.6443868,74.6121226 C46.4712028,74.8691745 45.6142925,74.9958962 44.3517453,75.1852358 L44.3517453,75.1854481 Z M45.0462736,63.3029009 C46.9447642,60.0085613 49.0113679,56.8974057 50.8722877,53.5642217 C50.5887028,52.9023821 49.89375,52.6207075 49.6918868,51.8847877 C50.9987972,49.4174292 50.3978774,41.7576651 47.0634198,43.3744811 C47.5299764,42.689717 48.7538915,42.1242453 49.3242453,41.2821934 C50.7307075,42.4148349 51.5799764,43.4808255 52.9284906,44.692217 C53.6603774,45.3481132 55.099316,46.1345519 55.244717,47.1952358 C55.3262264,47.7874528 54.9626179,49.2376415 54.8291038,49.9033019 C54.2383726,52.8240566 52.9102358,56.6830189 51.6449292,59.7438679 C51.1849528,60.8565566 50.7451415,62.2470991 50.1378538,62.4873821 C48.4758255,63.1454009 46.458467,62.4237028 45.0462736,63.3029009 Z M51.7640094,72.7492925 C51.0229953,72.8921462 50.5417925,73.3168868 49.6409434,73.2888679 C49.4112736,70.4753066 48.7581368,67.5176179 48.4891981,64.8373585 C49.0616745,64.8261085 49.7593868,64.6942925 50.3583962,64.8316274 C51.5481368,66.8770047 51.8037028,70.2795991 51.7640094,72.7490802 L51.7640094,72.7492925 Z M60.0567453,73.6925943 C58.6897642,74.0243632 56.5936557,74.1116038 55.6983255,73.6792217 C56.7938208,73.0806368 58.4390802,73.0774528 59.7071462,72.6667217 C57.8908019,71.884316 55.20375,72.6215094 53.0197642,72.4854481 C52.7559198,69.7886321 52.5576651,66.8651179 51.9183255,64.7367453 C53.193184,63.3816509 56.2729245,63.0566745 58.0209198,61.9374057 C59.0958255,61.249033 60.4415802,62.2324528 60.938066,62.9834434 C61.6096698,63.9989151 62.2373349,66.9878066 62.5899057,68.5749057 C63.1150472,70.9367689 61.934434,73.2364387 60.0567453,73.6925943 Z M48.6933962,51.5339151 C46.6529009,51.4738443 44.8095991,51.2314387 43.1957547,50.7761321 C43.305283,50.114717 43.1000236,49.4654009 43.2647406,48.9888679 C43.7147406,48.6647406 44.4687028,48.6698349 45.1485849,48.5938443 C44.5606132,48.3047406 43.7344811,48.1905425 43.0558726,48.3573821 C43.0401651,47.8982547 42.8340566,47.6136085 42.7092453,47.2542453 C43.856533,46.8447877 46.5645991,44.160283 48.0880189,45.0494575 C48.8139623,45.4722877 49.1221698,47.8870047 49.1784198,49.06125 C49.2253302,50.0353302 49.0901179,51.0179009 48.6933962,51.5339151 Z M38.93625,48.1983962 C38.9309434,48.3527123 38.9243632,48.5083019 38.9182075,48.6641038 C38.2812028,49.0824764 37.2525708,49.0775943 36.5535849,49.429316 C37.5841274,49.474316 38.3956132,49.7224528 39.0975708,50.0724764 C39.0820755,50.4613443 39.067217,50.8497877 39.0521462,51.2386557 C37.8842689,52.0380425 36.8176415,53.2286321 35.4428066,53.9783491 C34.7926415,54.3328302 32.5114387,55.2451415 31.8194575,55.0838208 C31.4282547,54.9929717 31.3930189,54.5073113 31.2365802,54.0496698 C30.9033255,53.069434 30.1362028,51.5092925 30.0691274,50.0338443 C29.9840094,48.1701651 29.7957311,45.0464858 31.8041745,45.430684 C33.4243868,45.7399528 35.3088679,46.4862736 36.5631368,47.1716745 C37.3298349,47.5908962 37.7730425,48.1088208 38.93625,48.1983962 Z M40.0960613,50.4220755 C39.9177594,49.406816 39.7118632,49.1172877 39.7916745,48.2315094 C42.4988915,46.4264151 43.0072642,51.3320519 40.0960613,50.4220755 Z" id="Shape"></path>
        </g>
    </g>
</svg>

<svg width="130" height="130" viewBox="0 0 130 130" xmlns="http://www.w3.org/2000/svg"><title>jenkins</title><g transform="translate(32 20)" fill="#7F7F7F" fill-rule="evenodd"><path d="M28.655 16.195c.993-2.215 2.622-4.35 5.9-3.586.628-1.036-.496-1.796-1.328-1.92-1.93-.292-4.295 1.855-4.882 3.47-.224.613-.577 1.82.31 2.035zm24.34 4.68c-.935-1.36-1.576-2.99-2.316-4.528l-.157-.006c-.105 1.77.553 2.837 1.01 4.088-.79.497-2.325.187-3.214.576-.065 2.618 4.05 1.328 4.675-.13zm-19.18.516c-1.23 1.948 2.407 2.314 3.97 1.852.427-.125 1.167-.766 1.27-1.054.432-1.22-.442-1.753-.892-2.19-1-.975-1.228-2.33-1.93-3.617-.487 1.382.834 3.727 1.576 4.912-.967.938-2.703.16-3.994.1zm7.296 10.856c3.854.38 6.476-1.262 8.827-2.772-.094-.592.712-1.66.488-2.55-.077-.306-.775-.75-1.198-1.214-1.725-1.88-4.088-4.692-5.027-6.89-.104-.242-.167-1.573-.894-1.046-.088 3.245 2.325 5.932 4.123 8.1.877 1.058 1.937 1.662.962 3.306-1.573.598-4.117 2.31-6.303 1.936-1.162-.198-.9-1.515-1.316-2.23-.8 1.052-.486 2.644.337 3.36zm-25.33-7.21c-.626 1.223-.476 3.602.375 4.375-.005-1.45-.23-3.927 1.006-3.852.866.052 1.042 1.905 1.78 2.326.812-3.913-4.08-5.892-4.587-2.2.396-.26.714-.997 1.427-.647zm29.8 10.42c3.21-.068 4.76-2.362 5.854-4.445-1.88.858-3.396 2.107-5.85 2.343-.12.405-.07 1.43-.005 2.102zm-.784.124c-.006-.744-.002-1.497-.152-2.107-2.784.08-6.55-.034-8.597-1.112.938 2.513 5.17 3.4 8.75 3.22zm-9.138-1.21c-1.81.002-.284 1.008.023 1.402.636.816 1.38 2.207 2.538 2.823 1.827.97 5.455.564 6.77.03.488-.2.88-.744 1.06-1.206-4.105.097-8.974.507-10.39-3.05zm18.07 31.916c1.814.116 3.122-1.693 4.983-2.065-2.237.067-3.986.66-4.983 2.066zm.967 1.127c1.538.126 3.32-.12 4.837-.28-1.303-.45-4.11-.833-4.837.28zm-.082 2.098c1.62.137 3.74.17 5.445.135-1.106-.515-4.486-1.163-5.445-.134z"/><circle cx="42.669" cy="53.949" r="1"/><circle cx="43.33" cy="57.016" r="1"/><path d="M62.448 62.186c-.417-.89-1.023-1.448-1.742-1.765a33.664 33.664 0 0 0 4.528-16.93c0-9.178-3.638-17.497-9.525-23.516a33.01 33.01 0 0 0-.854-.84c-.197-3.49-.873-6.777-2.133-9.325-1.104-2.233-4.19-5.316-6.12-6.777C42.047-.41 33.63-.79 28.144 1.23c-1.53.562-3.01 1.065-4.354 1.854-3.592 2.11-7.407 3.522-8.473 7.767-2.28 1.023-3.176 3.693-3.286 6.932a32.954 32.954 0 0 0-2.362 2.192C3.782 25.994.143 34.31.143 43.49c0 9.175 3.64 17.494 9.525 23.514.62.633 1.266 1.242 1.935 1.823.05.71.094 1.42.14 2.138.094 1.466-.06 3.017.32 3.827.392.836 1.845 1.104 2.895 1.59 3.035 1.405 6.253 3.547 10.232 3.122.95 3.19 1.846 6.586 2.984 9.378 4.08 1.468 10.52 1.238 14.763.728 1.29-.156 2.65-.792 2.954-1.91-.09-.69-.19-1.37-.148-2.186 1.327-.274 3.132-.5 3.424-1.968.41-2.06-1.3-5.01-.73-7.268.768-.25 1.587-.444 1.465-1.655 1.295-.674 2.83-.826 4.468-.762.21.41.51.8.78 1.026 2.296.46 4.52.5 6.424-.123 2.157-.704 3.186-5.115 2.692-7.213-.35-1.487-1.14-3.923-1.816-5.364zM26.57 3.66c.2-.057.372.077.537.253-.022.57-.584.558-.963.74-.592.727-1.455 1.067-2.174 1.863-.737.815-1.562 3.007-2.54 3.25-.49.12-1.05-.086-1.475-.058-1.13.07-1.924.65-3.07.815 1.48-3.23 6.09-5.845 9.686-6.864zM15.204 13.804C16.67 12.19 18.69 11.185 21.15 11c1.266 3.225-.91 7.056-.1 10.583.25 1.08 1.108 2.755-.263 2.792.036-3.073-3.776-5.022-6.648-3.216-.193-2.33-.526-5.607 1.063-7.355zm-2.5 12.28c.11-2.12 1.903-4.147 4.353-3.88 1.733.19 2.32 2.08 2.657 3.763.998.053 2.44-.042 2.913-.82-.068-1.903-.95-3.427-.89-5.174.114-3.282 1.902-6.244.522-9.476 1.477-3.35 5.81-5.994 9.013-7.59 3.973-1.98 10.292-.397 14.025 1.71 2.144 1.21 3.728 3.55 5.236 5.496-2.114-.628-3.916.45-3.587 2.196 1.77-1.623 4.797-.017 5.69 1.778.857 1.716.852 4.258.983 6.81.32 6.186-1.132 12.568-4.24 17.04-.83 1.194-1.53 2.498-2.697 3.32-2.818 1.978-7.1 3.77-10.765 2.54-4.845-1.625-7.046-4.852-9.71-8.55.072 2.032 1.5 3.698 2.91 5.25 1.227 1.355 2.708 2.885 4.3 3.516-1.328-.312-3.368-.41-3.922.783-3.1-.206-5.982-.523-7.45-2.625-1.155-1.657-2.33-4.473-2.856-6.65-.107-.447-.292-1.4-.247-1.644.173-.944 1.855-1.358 1.193-2.678-1.22-.012-1.495 1.11-2.615 1.222-2.9.287-4.947-3.844-4.815-6.336zM38.11 53.46c1.97 2.5 3.167 5.714 4.486 8.816-3.116-.94-6.3-2.464-9.03-4.01.535-2.323 2.636-3.526 4.544-4.806zm-.865-7.817c.022-.083.157-.045.162-.148 1.95.87 4.432-.354 6.403-.53-.856.558-1.585 1.256-2.407 1.852-1.824.09-2.818-.126-4.158-1.173zm1.912 6.925c.227-.24.43-.507.65-.753.973.406 1.607-.533 2.354-.453.858.09 1.536 1.273 2.757 1.195-.195 3.186-.093 6.384-.982 9.303-1.657-3.04-2.632-6.707-4.778-9.293zm6.69.104c1.73-.81 3.21.18 3.92 1.318-1.663 2.847-3.254 5.772-5.226 8.283.828-2.43 1.182-6.5 1.307-9.6zM13.602 73.215c-.227-8.078-1.514-16.46-4.703-23.3 3.343-2.582 7.085-5.31 11.087-6.89.303-.12 2.515 2.76 2.842 2.992 1.79 1.273 4.018 2.278 6.1 3.27.127.956.422 2.194.94 3.85.572 1.83 1.044 4.413 3.46 3.094-.228 1.045-1.57 1.693-1.2 2.912.232.764 2.77 1.708 3.574 2.162 1.484.837 2.84 1.3 3.98 1.79-5.183.14-10.05.562-14.84 1.214-.572-.888-.34-2.258-.4-3.674-.067-1.536.572-5-.033-5.216-.68-.243-.81 1.14-.833 1.446-.128 1.623.772 5.06-.116 7.002-.97-.275-1.45-1.006-2.36-1.338-.357 1.125.74 1.18.627 1.894-.15.944-1.938.155-1.928 1.56 1.164.186 2.95-.363 4.196.162.325 3.82.85 7.44 1.422 11.498-4.956-.257-8.164-2.72-11.816-4.428zm15.506 13.68c-2.212-6.78-3.42-13.217-4.25-20.873 5.16-.965 12.593-1.804 17.852-.71.48 3.132.302 6.22.653 9.29.466 4.082.118 8.74.915 12.567-4.34 1.346-10.26 1.216-15.17-.275zm18.437-3.724c-.942.318-1.484.596-2.747.594-.09-1.993-.355-5.04-.276-6.94.62.042 1.537-.443 2.036-.31.245 2.14 1.094 4.31.987 6.656zm-3.193-7.987c-.25-3.292-.443-6.535-.398-9.823.894-.3 1.683-.28 2.58-.29.776 2.804.73 6.37 1.11 9.54-1.173.257-2.03.384-3.292.573zm.694-11.882c1.9-3.294 3.965-6.406 5.826-9.74-.283-.66-.978-.942-1.18-1.678 1.307-2.468.706-10.127-2.63-8.51.468-.685 1.692-1.25 2.262-2.093 1.407 1.133 2.256 2.2 3.604 3.41.732.656 2.17 1.443 2.317 2.503.08.592-.282 2.043-.416 2.708-.592 2.92-1.92 6.78-3.185 9.84-.46 1.114-.9 2.504-1.507 2.744-1.662.658-3.68-.063-5.092.816zm6.718 9.446c-.74.142-1.222.567-2.123.54-.23-2.815-.882-5.772-1.15-8.453.572-.01 1.27-.143 1.868-.005 1.19 2.045 1.446 5.448 1.406 7.917zm8.293.943c-1.367.33-3.463.42-4.36-.014 1.097-.6 2.742-.603 4.01-1.013-1.816-.783-4.503-.045-6.687-.182-.264-2.696-.462-5.62-1.102-7.748 1.275-1.355 4.355-1.68 6.103-2.8 1.076-.688 2.422.295 2.918 1.046.672 1.016 1.3 4.005 1.652 5.592.525 2.362-.656 4.66-2.533 5.118zm-11.364-22.16c-2.04-.06-3.883-.302-5.497-.757.11-.66-.096-1.31.07-1.787.45-.325 1.203-.32 1.883-.396-.59-.29-1.416-.403-2.094-.237-.016-.46-.222-.743-.347-1.103 1.147-.41 3.855-3.094 5.378-2.205.726.422 1.034 2.837 1.09 4.01.047.975-.088 1.958-.485 2.474zM38.936 48.2l-.018.466c-.637.418-1.665.414-2.364.765a6.142 6.142 0 0 1 2.544.642l-.046 1.167c-1.168.798-2.234 1.99-3.61 2.738-.65.355-2.93 1.267-3.623 1.106-.392-.09-.427-.577-.583-1.034-.334-.98-1.1-2.54-1.168-4.016-.086-1.864-.274-4.988 1.734-4.603 1.62.31 3.505 1.056 4.76 1.742.766.42 1.21.937 2.372 1.026zm1.16 2.224c-.178-1.015-.384-1.305-.304-2.19 2.707-1.806 3.215 3.1.304 2.19z"/></g></svg>
